!!!SOCIAL_FUNCTION:	bird dance songs
!!!PDT:	1956
!!!OTL: No_119_Hinata_Dance_Song_(o).krn
!!!LANG: Non-Tone
!!!LING_GROUP: Muskogean
!!!REG: Florida
**kern
*staff1
=1-
*clefF4
*k[b-]
*M2/4
8.r
16G\
8.F\L
16c\Jk
=2!|:
[4c\
8c\L]
8B-\J
=3
16A\LL
16A\
16A\
16A\JJ
8.c\L
16B-\Jk
=4
12A\L
12B-\
12A\J
(8.B-\L
16A\Jk)
=5
12F\L
12F\
12F\J
8.F\L
16A\Jk
=6||
*M7/8
8F\L
8F\
16F\Jk
16r
8B-\L
8A\
(8.B-\
16A\Jk)
=7||
*M2/4
12F\L
12F\
12F\J
8.F\L
16F\Jk
=8
12C\L
12F\
12F\J
4F\
=9
12r
12F\L
12F\J
8.F\L
16A\Jk
=10||
*M7/8
8F\L
8F\
16F\Jk
16r
8B-\L
8A\
(8.B-\
16A\Jk)
=11||
*M2/4
12F\L
12F\
12F\J
8.F\L
16F\Jk
=12
12C\L
12F\
12F\J
4F\
=13||
*M3/4
12r
12F\L
12F\J
8.F\L
16F\Jk
8F\L
16c\L
16c\JJ
=14:|!
=
*M2/4
12r
12F\L
12F\J
4F\
==
*-
